X:65
T: Gardener's Daughter
S: "The Roche Collection of Traditional Irish Music" [I/55/135]
L: 1/8
M: 4/4
R: reel
K: Ador
gf | eAAB GABd | eAAf gfgd | (3efg dB GABc | dgfg agfg |
eAAB GABd | eAAf gfgd | (3efg dB GABc | (3dcB gB A2 ||
Bd | eaag efge | d2 ef g2 fd | (3efg dB GABc | dgfg agfg |
eaag efge | d2 ef gfgd | (3efg dB GABc | (3dcB gB A2 |]
